packages/ffe-icons/icons/open/400/sm/resize.svg

<svg xmlns="http://www.w3.org/2000/svg" height="20" viewBox="0 -960 960 960" width="20"><path d="M180.211-744Q165-744 154.5-754.289q-10.5-10.29-10.5-25.5Q144-795 154.289-805.5q10.29-10.5 25.5-10.5Q195-816 205.5-805.711q10.5 10.29 10.5 25.5Q216-765 205.711-754.5q-10.29 10.5-25.5 10.5Zm150 0Q315-744 304.5-754.289q-10.5-10.29-10.5-25.5Q294-795 304.289-805.5q10.29-10.5 25.5-10.5Q345-816 355.5-805.711q10.5 10.29 10.5 25.5Q366-765 355.711-754.5q-10.29 10.5-25.5 10.5Zm150 0Q465-744 454.5-754.289q-10.5-10.29-10.5-25.5Q444-795 454.289-805.5q10.29-10.5 25.5-10.5Q495-816 505.5-805.711q10.5 10.29 10.5 25.5Q516-765 505.711-754.5q-10.29 10.5-25.5 10.5Zm-300 150Q165-594 154.5-604.289q-10.5-10.29-10.5-25.5Q144-645 154.289-655.5q10.29-10.5 25.5-10.5Q195-666 205.5-655.711q10.5 10.29 10.5 25.5Q216-615 205.711-604.5q-10.29 10.5-25.5 10.5Zm0 150Q165-444 154.5-454.289q-10.5-10.29-10.5-25.5Q144-495 154.289-505.5q10.29-10.5 25.5-10.5Q195-516 205.5-505.711q10.5 10.29 10.5 25.5Q216-465 205.711-454.5q-10.29 10.5-25.5 10.5Zm600 0Q765-444 754.5-454.289q-10.5-10.29-10.5-25.5Q744-495 754.289-505.5q10.29-10.5 25.5-10.5Q795-516 805.5-505.711q10.5 10.29 10.5 25.5Q816-465 805.711-454.5q-10.29 10.5-25.5 10.5Zm0 150Q765-294 754.5-304.289q-10.5-10.29-10.5-25.5Q744-345 754.289-355.5q10.29-10.5 25.5-10.5Q795-366 805.5-355.711q10.5 10.29 10.5 25.5Q816-315 805.711-304.5q-10.29 10.5-25.5 10.5Zm-300 150Q465-144 454.5-154.289q-10.5-10.29-10.5-25.5Q444-195 454.289-205.5q10.29-10.5 25.5-10.5Q495-216 505.5-205.711q10.5 10.29 10.5 25.5Q516-165 505.711-154.5q-10.29 10.5-25.5 10.5Zm150 0Q615-144 604.5-154.289q-10.5-10.29-10.5-25.5Q594-195 604.289-205.5q10.29-10.5 25.5-10.5Q645-216 655.5-205.711q10.5 10.29 10.5 25.5Q666-165 655.711-154.5q-10.29 10.5-25.5 10.5Zm150 0Q765-144 754.5-154.289q-10.5-10.29-10.5-25.5Q744-195 754.289-205.5q10.29-10.5 25.5-10.5Q795-216 805.5-205.711q10.5 10.29 10.5 25.5Q816-165 805.711-154.5q-10.29 10.5-25.5 10.5ZM744-636v-108H628q-15.3 0-25.65-10.289-10.35-10.29-10.35-25.5Q592-795 602.35-805.5 612.7-816 628-816h116q29.7 0 50.85 21.118Q816-773.765 816-744.111v107.835Q816-621 805.711-610.5q-10.29 10.5-25.5 10.5Q765-600 754.5-610.35 744-620.7 744-636ZM144-216v-116q0-15.3 10.289-25.65 10.29-10.35 25.5-10.35Q195-368 205.5-357.65 216-347.3 216-332v116h107.737Q339-216 349.5-205.711q10.5 10.29 10.5 25.5Q360-165 349.632-154.5 339.264-144 323.938-144H215.751Q186-144 165-165.15 144-186.3 144-216Z"/></svg>

<svg xmlns="http://www.w3.org/2000/svg" height="20" viewBox="0 -960 960 960" width="20"><path d="M180.21-744q-15.21 0-25.71-10.29t-10.5-25.5q0-15.21 10.29-25.71t25.5-10.5q15.21 0 25.71 10.29t10.5 25.5q0 15.21-10.29 25.71t-25.5 10.5Zm150 0q-15.21 0-25.71-10.29t-10.5-25.5q0-15.21 10.29-25.71t25.5-10.5q15.21 0 25.71 10.29t10.5 25.5q0 15.21-10.29 25.71t-25.5 10.5Zm150 0q-15.21 0-25.71-10.29t-10.5-25.5q0-15.21 10.29-25.71t25.5-10.5q15.21 0 25.71 10.29t10.5 25.5q0 15.21-10.29 25.71t-25.5 10.5Zm-300 150q-15.21 0-25.71-10.29t-10.5-25.5q0-15.21 10.29-25.71t25.5-10.5q15.21 0 25.71 10.29t10.5 25.5q0 15.21-10.29 25.71t-25.5 10.5Zm0 150q-15.21 0-25.71-10.29t-10.5-25.5q0-15.21 10.29-25.71t25.5-10.5q15.21 0 25.71 10.29t10.5 25.5q0 15.21-10.29 25.71t-25.5 10.5Zm600 0q-15.21 0-25.71-10.29t-10.5-25.5q0-15.21 10.29-25.71t25.5-10.5q15.21 0 25.71 10.29t10.5 25.5q0 15.21-10.29 25.71t-25.5 10.5Zm0 150q-15.21 0-25.71-10.29t-10.5-25.5q0-15.21 10.29-25.71t25.5-10.5q15.21 0 25.71 10.29t10.5 25.5q0 15.21-10.29 25.71t-25.5 10.5Zm-300 150q-15.21 0-25.71-10.29t-10.5-25.5q0-15.21 10.29-25.71t25.5-10.5q15.21 0 25.71 10.29t10.5 25.5q0 15.21-10.29 25.71t-25.5 10.5Zm150 0q-15.21 0-25.71-10.29t-10.5-25.5q0-15.21 10.29-25.71t25.5-10.5q15.21 0 25.71 10.29t10.5 25.5q0 15.21-10.29 25.71t-25.5 10.5Zm150 0q-15.21 0-25.71-10.29t-10.5-25.5q0-15.21 10.29-25.71t25.5-10.5q15.21 0 25.71 10.29t10.5 25.5q0 15.21-10.29 25.71t-25.5 10.5ZM744-636v-108H628q-15.3 0-25.65-10.29Q592-764.58 592-779.79t10.35-25.71Q612.7-816 628-816h116q29.7 0 50.85 21.12Q816-773.76 816-744.11v107.83q0 15.28-10.29 25.78-10.29 10.5-25.5 10.5t-25.71-10.35Q744-620.7 744-636ZM144-216v-116q0-15.3 10.29-25.65Q164.58-368 179.79-368t25.71 10.35Q216-347.3 216-332v116h107.74q15.26 0 25.76 10.29 10.5 10.29 10.5 25.5t-10.37 25.71Q339.26-144 323.94-144H215.75Q186-144 165-165.15T144-216Z"/></svg>
